X: 37024
T: Silas Just Desserts
R: jig
M: 6/8
K: Amixolydian
|:Aee edB|dBd edG|Aee edB|dBd e2 G|
Aee edB|dBd edB|GAB dBe|ABG A2 B:|
Aaa eac|Aaa aec|Ggg gfg|age egG|
Aaa eac|Aaa aec|GAB dBe|ABG A2 B|
Aaa eac|Aaa eac|Ggg gfg|age egG|
Aaa eac|Aaa eac|GAB dBe|ABG A3|
|:B2 f fed|Aea eaA|B2 f fec|A2 c2 e2|
Bff fed|Aea eaA|Bcd cde|1 ecA B2 c:|2 e2 c2 A2|B5||

